X:1
T:Wait, Patiently Wait
T:Wait, Patiently Wait
T:L. H. Parthemore
T:John Henry Kurzenknabe, 1889
T:Public Domain Courtesy of the Cyber Hymnal™
C:L. H. Parthemore
Z:Public Domain
Z:Courtesy of the Cyber Hymnal™
%%score ( 1 2 ) ( 3 4 )
L:1/8
Q:1/4=110
M:4/4
K:F
V:1 treble 
V:2 treble 
V:3 bass 
V:4 bass 
V:1
 (F>G) | [FA]2 [FA]2 [FB]2 [FA]2 | [Fc]2 [FA]2 [EG]2 ([EG]>[FA]) | [GB]2 [EG]2 [Ec]2 [EG]2 | %4
w: 1.~Our *|friends are gath- ering,|one by one, To *|meet the bless- èd|
w: 2.~What *|won- drous sounds the|earth shall greet, When *|comes the mid- night|
w: 3.~With *|lamps well trimmed, we’ll|watch and wait, All *|rea- dy for that|
w: 4.~And *|then, the ran- somed|hosts shall join A- *|round the great white|
 [FA]6 [Fc]2 | [Fd]2 [Fd]2 [Ff]2 [Fd]2 | [Fd]2 [Fc]2 [Fc]2 [FA]2 | [Ec]3 [EG] [EA]2 [EG]2 | %8
w: Lord; How|soon this earth- ly|jour- ney’s done, And|then the rich re-|
w: cry: “The|Lord is come! go|out to meet The|Bride- groom pass- ing|
w: day; And|come He ear- ly,|come He late, We’ll|meet Him on the|
w: throne; All|praise and glo- ry|shall be Thine, Thou|Lord and King a-|
 F6 z2 ||"^Refrain" c4 [FA]2 (3:2:2FA x2/3 | c6 A2 | d6 (3fed | c6 z2 | f6 c>f | [Fe]2 d4 B>d | %15
w: ward.|||||||
w: by.”|Wait, pa- tient- ly|wait, Wait,|* pa- tient- ly|wait;|Wait for His|com- ing, Be it|
w: way.|||||||
w: lone.|||||||
 [Fc]3 [FG] [FA]2 [EG]2 | F6 |] %17
w: ||
w: ear- ly, be it|late.|
w: ||
w: ||
V:2
 F2 | x8 | x8 | x8 | x8 | x8 | x8 | x8 | F6 x2 || (F2 F2 F2) (3:2:1d x4/3 | A2 A2 A2 x2 | %11
 (B2 B2 B2) B2 | (A2 A2 A2) x2 | (A2 A2 F2) F2 | x2 (F2 F2) F2 | x8 | F6 |] %17
V:3
 (A,>B,) | [F,C]2 [F,C]2 [F,D]2 [F,C]2 | [F,A,]2 [F,C]2 [C,C]2 [C,C]2 | %3
w: ~ *|~ ~ ~ ~|~ ~ ~ ~|
 [C,C]2 [C,C]2 [C,G,]2 [C,C]2 | [F,C]6 [F,A,]2 | [B,,B,]2 [B,,B,]2 [D,B,]2 [B,,B,]2 | %6
w: ~ ~ ~ ~|~ ~|~ ~ ~ ~|
 [F,B,]2 [F,A,]2 [F,A,]2 [F,C]2 | [C,C]3 [C,C] [C,C]2 [C,B,]2 | [F,A,]6 z2 || %9
w: ~ ~ ~ ~|~ ~ ~ ~|~|
 [F,A,]2 [F,A,]2 [F,C]2 [F,A,]2 | [F,C]2 [F,C]2 [F,C]2 [F,F]2 | [B,F]2 [B,F]2 [B,F]2 [B,D]2 | %12
w: Be not wea- ry|watch- ing, wait- ing;|Some go ear- ly,|
 [F,F]2 [F,F]2 [F,F]2 z2 | [F,C]2 [F,C]2 [F,A,]2 [A,,C]2 | [B,,B,]2 [B,,B,]2 [B,,B,]2 (D>B,) | %15
w: o- thers late;|With your lamps all|trimmed and burn- ing, *|
 [C,A,]3 [C,B,] [C,C]2 [C,B,]2 | [F,A,]6 |] %17
w: Rea- dy, watch and|wait.|
V:4
 F,2 | x8 | x8 | x8 | x8 | x8 | x8 | x8 | x8 || x8 | x8 | x8 | x8 | x8 | x6 B,,2 | x8 | x6 |] %17

